X:1
T:Dorset Four Hand Reel
L:1/4
M:4/4
I:linebreak $
K:G
V:1 treble
V:1
 |:"A"B/A/ |"G" G B d c/B/ |"C" c e c e |"G" G B d3/2 c/ |$
 "Am"B A "D7"A B/A/ | "G" G B d c/B/ | "C"c e c e | "G" G B "D7"d3/2 c/ |$
  "G" B G G :|: "B"d | "G" g g "C"g/f/ e | "G" d d "Em"d/c/ B | "Am"A3/2 B/ c d |$
 "D"e d d e/f/ | "G" g g "C"g/f/ e | "G" d d "Em"d/c/ B |  "Am"A A/B/ "D7"c A | "G" G2 G :|
